icons/close-modal.svg

<svg width="15" height="15" viewBox="0 0 15 15" fill="none" xmlns="http://www.w3.org/2000/svg">
<path d="M14.4905 1.78288L13.1982 0.49057L7.49048 6.19826L1.78279 0.49057L0.490479 1.78288L6.19817 7.49057L0.490479 13.1983L1.78279 14.4906L7.49048 8.78288L13.1982 14.4906L14.4905 13.1983L8.78279 7.49057L14.4905 1.78288Z" fill="black"/>
</svg>

<svg xmlns="http://www.w3.org/2000/svg" viewBox="0 0 15 15"><path d="M14.5 1.78 13.2.5 7.49 6.2 1.79.5.48 1.8l5.7 5.7-5.7 5.7 1.3 1.3 5.7-5.7 5.7 5.7 1.3-1.3-5.7-5.7 5.7-5.7Z"/></svg>
